manual-assets/professional/deepin-movie/en_US/icon/Ctrl.svg

<?xml version="1.0" encoding="iso-8859-1"?>
<!-- Generator: Adobe Illustrator 18.0.0, SVG Export Plug-In . SVG Version: 6.00 Build 0)  -->
<!DOCTYPE svg PUBLIC "-//W3C//DTD SVG 1.1//EN" "http://www.w3.org/Graphics/SVG/1.1/DTD/svg11.dtd">
<svg version="1.1" id="&#x56FE;&#x5C42;_1" xmlns="http://www.w3.org/2000/svg" xmlns:xlink="http://www.w3.org/1999/xlink" x="0px"
	 y="0px" viewBox="0 0 30 20" enable-background="new 0 0 30 20" xml:space="preserve">
<g>
	<path opacity="0.1" fill="#FFFFFF" d="M25.667,19.5H4.333c-2.108,0-3.833-1.725-3.833-3.833V4.333C0.5,2.225,2.225,0.5,4.333,0.5
		h21.334c2.108,0,3.833,1.725,3.833,3.833v11.334C29.5,17.775,27.775,19.5,25.667,19.5z"/>
	<path d="M16,13.811c0,0.114-0.342,0.171-0.697,0.171c-0.967,0-1.303-0.535-1.303-1.606V9h-1V8h1V6.728l1-0.303V8h1v1h-1v3.204
		c0,0.355-0.027,0.612,0.094,0.765c0.121,0.153,0.232,0.227,0.512,0.227c0.215,0,0.394-0.181,0.394-0.181V13.811z"/>
	<path d="M20,9.077c0-0.125-0.423-0.189-0.703-0.189c-0.371,0-0.686,0.192-0.927,0.575C18.13,9.846,18,10.35,18,10.976V14h-1V8h1v1
		h-0.006c0.272-0.797,0.789-1.031,1.46-1.031C19.828,7.969,20,8.18,20,8.234V9.077z"/>
	<path d="M21,14V5h1v9H21z"/>
	<path fill="none" stroke="#CBCBCB" stroke-miterlimit="10" d="M25.5,19.5h-21c-2.209,0-4-1.791-4-4v-11c0-2.209,1.791-4,4-4h21
		c2.209,0,4,1.791,4,4v11C29.5,17.709,27.709,19.5,25.5,19.5z"/>
	<path d="M12,12.116C11.468,12.659,10.779,13,10.017,13C8.354,13,7,11.43,7,9.5S8.354,6,10.017,6C10.779,6,11.468,6.341,12,6.884
		V5.609C11.413,5.232,10.742,5,10.017,5C7.798,5,6,7.015,6,9.5S7.798,14,10.017,14c0.725,0,1.396-0.232,1.983-0.609V12.116z"/>
</g>
</svg>

<?xml version="1.0" encoding="UTF-8"?>
<svg width="30px" height="20px" viewBox="0 0 30 20" version="1.1" xmlns="http://www.w3.org/2000/svg" xmlns:xlink="http://www.w3.org/1999/xlink">
    <!-- Generator: Sketch 64 (93537) - https://sketch.com -->
    <title>Ctrl</title>
    <desc>Created with Sketch.</desc>
    <g id="页面-1" stroke="none" stroke-width="1" fill="none" fill-rule="evenodd">
        <g id="Ctrl">
            <path d="M25.667,19.5 L4.333,19.5 C2.225,19.5 0.5,17.775 0.5,15.667 L0.5,4.333 C0.5,2.225 2.225,0.5 4.333,0.5 L25.667,0.5 C27.775,0.5 29.5,2.225 29.5,4.333 L29.5,15.667 C29.5,17.775 27.775,19.5 25.667,19.5 Z" id="路径" fill="#FFFFFF" fill-rule="nonzero"></path>
            <path d="M16,13.811 C16,13.925 15.658,13.982 15.303,13.982 C14.336,13.982 14,13.447 14,12.376 L14,9 L13,9 L13,8 L14,8 L14,6.728 L15,6.425 L15,8 L16,8 L16,9 L15,9 L15,12.204 C15,12.559 14.973,12.816 15.094,12.969 C15.215,13.122 15.326,13.196 15.606,13.196 C15.821,13.196 16,13.015 16,13.015 L16,13.811 Z" id="路径" fill="#000000" fill-rule="nonzero"></path>
            <path d="M20,9.077 C20,8.952 19.577,8.888 19.297,8.888 C18.926,8.888 18.611,9.08 18.37,9.463 C18.13,9.846 18,10.35 18,10.976 L18,14 L17,14 L17,8 L18,8 L18,9 L17.994,9 C18.266,8.203 18.783,7.969 19.454,7.969 C19.828,7.969 20,8.18 20,8.234 L20,9.077 Z" id="路径" fill="#000000" fill-rule="nonzero"></path>
            <polygon id="路径" fill="#000000" fill-rule="nonzero" points="21 14 21 5 22 5 22 14"></polygon>
            <path d="M25.5,19.5 L4.5,19.5 C2.291,19.5 0.5,17.709 0.5,15.5 L0.5,4.5 C0.5,2.291 2.291,0.5 4.5,0.5 L25.5,0.5 C27.709,0.5 29.5,2.291 29.5,4.5 L29.5,15.5 C29.5,17.709 27.709,19.5 25.5,19.5 Z" id="路径" stroke="#CBCBCB"></path>
            <path d="M12,12.116 C11.468,12.659 10.779,13 10.017,13 C8.354,13 7,11.43 7,9.5 C7,7.57 8.354,6 10.017,6 C10.779,6 11.468,6.341 12,6.884 L12,5.609 C11.413,5.232 10.742,5 10.017,5 C7.798,5 6,7.015 6,9.5 C6,11.985 7.798,14 10.017,14 C10.742,14 11.413,13.768 12,13.391 L12,12.116 Z" id="路径" fill="#000000" fill-rule="nonzero"></path>
        </g>
    </g>
</svg>
